assets/images/icons/src/refresh.svg

<?xml version="1.0" encoding="utf-8"?>
<!-- Generated by IcoMoon.io -->
<!DOCTYPE svg PUBLIC "-//W3C//DTD SVG 1.1//EN" "http://www.w3.org/Graphics/SVG/1.1/DTD/svg11.dtd">
<svg version="1.1" xmlns="http://www.w3.org/2000/svg" xmlns:xlink="http://www.w3.org/1999/xlink" width="12" height="14" viewBox="0 0 12 14">
<path fill="#444444" d="M11.805 8.25q0 0.039-0.008 0.055-0.5 2.094-2.094 3.395t-3.734 1.301q-1.141 0-2.207-0.43t-1.902-1.227l-1.008 1.008q-0.148 0.148-0.352 0.148t-0.352-0.148-0.148-0.352v-3.5q0-0.203 0.148-0.352t0.352-0.148h3.5q0.203 0 0.352 0.148t0.148 0.352-0.148 0.352l-1.070 1.070q0.555 0.516 1.258 0.797t1.461 0.281q1.047 0 1.953-0.508t1.453-1.398q0.086-0.133 0.414-0.914 0.062-0.18 0.234-0.18h1.5q0.102 0 0.176 0.074t0.074 0.176zM12 2v3.5q0 0.203-0.148 0.352t-0.352 0.148h-3.5q-0.203 0-0.352-0.148t-0.148-0.352 0.148-0.352l1.078-1.078q-1.156-1.070-2.727-1.070-1.047 0-1.953 0.508t-1.453 1.398q-0.086 0.133-0.414 0.914-0.062 0.18-0.234 0.18h-1.555q-0.102 0-0.176-0.074t-0.074-0.176v-0.055q0.508-2.094 2.109-3.395t3.75-1.301q1.141 0 2.219 0.434t1.914 1.223l1.016-1.008q0.148-0.148 0.352-0.148t0.352 0.148 0.148 0.352z"></path>
</svg>

<svg xmlns="http://www.w3.org/2000/svg" width="12" height="14" viewBox="0 0 12 14"><path fill="#444" d="M11.805 8.25q0 .039-.008.055-.5 2.094-2.094 3.395t-3.734 1.301q-1.141 0-2.207-.43T1.86 11.344L.852 12.352Q.704 12.5.5 12.5t-.352-.148T0 12V8.5q0-.203.148-.352T.5 8H4q.203 0 .352.148T4.5 8.5t-.148.352l-1.07 1.07q.555.516 1.258.797T6.001 11q1.047 0 1.953-.508t1.453-1.398q.086-.133.414-.914.062-.18.234-.18h1.5q.102 0 .176.074t.074.176zM12 2v3.5q0 .203-.148.352T11.5 6H8q-.203 0-.352-.148T7.5 5.5t.148-.352L8.726 4.07Q7.57 3 5.999 3q-1.047 0-1.953.508T2.593 4.906q-.086.133-.414.914-.062.18-.234.18H.39q-.102 0-.176-.074T.14 5.75v-.055Q.648 3.601 2.249 2.3T5.999.999q1.141 0 2.219.434t1.914 1.223l1.016-1.008q.148-.148.352-.148t.352.148T12 2z"/></svg>
